images/stellar.svg

<svg width="20" height="26" viewBox="0 0 20 26" fill="none" xmlns="http://www.w3.org/2000/svg">
<path fill-rule="evenodd" clip-rule="evenodd" d="M11.6666 17.0638H11.6926C11.8624 17.0633 12.0292 17.0181 12.1762 16.9326C12.3223 16.849 12.463 16.7259 12.6062 16.5556C12.6284 16.5292 12.6552 16.4977 12.6863 16.4613C14.0349 17.8811 14.291 19.3554 14.3231 20.1153C14.3367 20.4434 14.5294 20.3144 14.6304 20.1558C16.6309 17.0132 16.2165 14.7242 15.4106 13.2878C16.2282 12.32 17.1473 11.2141 18.062 10.074C19.7427 7.98007 19.6288 5.02586 19.4113 3.45123C19.3321 2.87718 19.2127 2.30212 19.0751 1.83199C18.8697 1.13051 18.7398 1.02457 18.6751 0.978202L18.6692 0.973919C18.6061 0.928925 18.4749 0.835446 17.7358 0.877165C17.2536 0.904435 16.6797 0.983732 16.1197 1.10073C14.7033 1.39668 13.6631 1.85964 13.0405 2.19593C11.8626 2.83269 10.9691 3.6469 10.3848 4.61719C9.623 5.88197 8.89528 7.13924 8.2644 8.24975C6.63215 8.01215 4.36825 8.45161 2.10923 11.3628C1.99259 11.5136 1.93508 11.7408 2.252 11.6417C2.97699 11.415 4.43867 11.158 6.21615 11.9206C6.20233 11.9452 6.18983 11.9672 6.17869 11.9868C6.03404 12.2407 5.85989 12.627 6.02154 13.0483C6.1188 13.3019 6.32018 13.5297 6.68795 13.8008C6.55819 13.9212 6.43917 14.0575 6.33371 14.2092C6.32151 14.2267 6.31069 14.2447 6.29985 14.2627C6.29337 14.2734 6.28686 14.2842 6.28008 14.2949C4.89625 16.3488 4.66347 18.6232 5.7745 19.415C6.88566 20.2076 8.92307 19.2194 10.3674 17.2089C10.3747 17.1993 10.3823 17.19 10.3898 17.1806C10.4032 17.164 10.4166 17.1473 10.4288 17.1295C10.5354 16.9764 10.6228 16.8154 10.6914 16.6495C11.0929 16.932 11.3856 17.0561 11.6666 17.0638ZM16.008 8.15086C15.3042 9.15721 13.921 9.39837 12.92 8.6891C11.9194 7.9797 11.6797 6.58968 12.3839 5.58295C13.0882 4.57622 14.4709 4.33556 15.4719 5.04484C16.4729 5.75411 16.7117 7.14451 16.008 8.15086Z" fill="#FF961C"/>
<path d="M0.466797 24.9513L3.97838 19.9843L4.23324 20.1663L0.721658 25.1334L0.466797 24.9513Z" fill="#FF961C"/>
<path d="M2.48008 24.3182L4.53431 21.3988L4.7907 21.5811L2.73648 24.5004L2.48008 24.3182Z" fill="#FF961C"/>
</svg>

<svg width="20" height="26" fill="none" xmlns="http://www.w3.org/2000/svg"><path fill-rule="evenodd" clip-rule="evenodd" d="M11.667 17.064h.026c.17 0 .336-.046.483-.131.146-.084.287-.207.43-.377l.08-.095c1.349 1.42 1.605 2.894 1.637 3.654.014.328.206.2.307.04 2-3.142 1.586-5.43.78-6.867.818-.968 1.737-2.074 2.652-3.214 1.68-2.094 1.567-5.048 1.35-6.623-.08-.574-.2-1.149-.337-1.619-.205-.701-.335-.807-.4-.854L18.67.974c-.063-.045-.194-.139-.933-.097-.482.027-1.056.107-1.616.224-1.417.296-2.457.759-3.08 1.095-1.177.637-2.07 1.45-2.655 2.421a166.873 166.873 0 00-2.12 3.633c-1.633-.238-3.897.202-6.156 3.113-.116.15-.174.378.143.279.725-.227 2.187-.484 3.964.279l-.037.066c-.145.254-.32.64-.157 1.061.097.254.298.482.666.753-.13.12-.249.256-.354.408l-.034.054-.02.032c-1.384 2.054-1.617 4.328-.506 5.12 1.112.793 3.15-.196 4.593-2.206l.023-.028a2.535 2.535 0 00.302-.531c.4.282.694.406.975.414zm4.341-8.913a2.207 2.207 0 01-3.088.538c-1-.71-1.24-2.1-.536-3.106a2.207 2.207 0 013.088-.538c1 .71 1.24 2.1.536 3.106z" fill="#FF961C"/><path d="M.467 24.951l3.511-4.967.255.182-3.511 4.967-.255-.182zM2.48 24.318l2.054-2.92.257.183-2.055 2.92-.256-.183z" fill="#FF961C"/></svg>
